!!!!SEGMENT: pl-gd--ee-2628--007-006_stabile-annibale--sacrarum-modulationum-domine-ne-in-furore-tuo.krn
!!!cenid: 15xx:1095
!!!COM: Stabile, Annibale
!!!COM-rismID: pe30009662
!!!CDT: ~1535-1595/04
!!!CNT: Italian
!!!GTL: Sacrarum modulationum
!!!OTL: Domine ne in furore tuo
!!!OMV: 006
!!!PDT: 1585
!!!AGN:
!!!SMS-siglum: PL-GD
!!!SMS-shelfmark: Ee 2628
!!!SMS-shelfwork: 007-006 G
!!!SMS-variant:
!!!SMS-altvar:
!!!NIFC-rismSourceID: 1001203361
!!!NIFC-rismChildID: 990060529
!!!NIFC-islandoraID: pl-gd:66139
!!!URL-pdf-islandora: https://repozytorium.nifc.pl/islandora/object/pl-gd%3A66139/datastream/PDF/view
!!!URL-scan: https://polish.musicsources.pl/pl/lokalizacje/galeria/klocki-introligatorskie/673 @EN{Scan on Polish Music Sources Website} @PL{Skany w portalu Dziedzictwo Muzyki Polskiej w otwartym dostępie}
!!!IIIF:
!!!ONB-nifc: UWAGA: Cantus: s. 102-113, Tenore: s. 258-269, Basso: s. 414-425, Quinto: s. 736-747, Sextus: s. 624-632. Dla głosu Alto proszę skorzystać z https://pbc.gda.pl/dlibra/publication/87583/edition/79412/content, s. 25-48. Uwaga: utwory podzielone wg spisu treści dostępnych na końcu ksiąg – proszę sprawdzać sąsiednie tytuły i zwracać uwagę na liczbę głosów. Głosy Quinto i Sextus proszę umieszczać wg ambitusu (może się różnić w zależności od utworu).
!!!AIN: 1 alto 1 bass 1 soprn 2 tenor
!!!key:
**kern	**text	**kern	**text	**kern	**text	**kern	**text	**kern	**text
*part5	*part5	*part4	*part4	*part3	*part3	*part2	*part2	*part1	*part1
*staff5	*staff5	*staff4	*staff4	*staff3	*staff3	*staff2	*staff2	*staff1	*staff1
*I"BASSVS	*	*I"QVINTVS	*	*I"TENOR	*	*I"ALTVS	*	*I"CANTVS	*
*I'B	*	*I'V 5	*	*I'T	*	*I'A	*	*I'S	*
*Ibass	*	*Itenor	*	*Itenor	*	*Ialto	*	*Isoprn	*
*ICvox	*	*ICvox	*	*ICvox	*	*ICvox	*	*ICvox	*
*clefF3	*	*clefC3	*	*clefC3	*	*clefC2	*	*clefG2	*
*k[b-]	*	*k[b-]	*	*k[b-]	*	*k[b-]	*	*k[b-]	*
*g:	*	*g:	*	*g:	*	*g:	*	*g:	*
*M2/1	*	*M2/1	*	*M2/1	*	*M2/1	*	*M2/1	*
*met(C)	*	*met(C)	*	*met(C)	*	*met(C)	*	*met(C)	*
=1-	=1-	=1-	=1-	=1-	=1-	=1-	=1-	=1-	=1-
!LO:TX:t=P:problem=przy kluczu BB- B-	!	!	!	!	!	!LO:TX:t=P:problem=przy kluczu B- b-	!	!	!
!LO:TX:a:i:t=Prima Pars.	!	!LO:TX:a:i:t=Prima Pars.	!	!LO:TX:a:i:t=Prima Pars.	!	!LO:TX:a:i:t=Prima Pars.	!	!LO:TX:a:i:t=Prima Pars.	!
00r	.	1.d	DO-	00r	.	0r	.	00r	.
.	.	2d\	-mi-	.	.	.	.	.	.
=2-	=2-	=2-	=2-	=2-	=2-	=2-	=2-	=2-	=2-
.	.	1d	-ne	.	.	1r	.	.	.
.	.	2r	.	.	.	1.g	DO-	.	.
.	.	2c/	ne	.	.	.	.	.	.
=3-	=3-	=3-	=3-	=3-	=3-	=3-	=3-	=3-	=3-
1.G	Do-	2B-/	in	1r	.	.	.	00r	.
.	.	2G/	fu-	.	.	2g\	-mi-	.	.
.	.	2.B-/	-ro-	1.d	DO-	1g	-ne	.	.
2G\	-mi-	.	.	.	.	.	.	.	.
.	.	4c/	.	.	.	.	.	.	.
=4-	=4-	=4-	=4-	=4-	=4-	=4-	=4-	=4-	=4-
1G	-(n)ae	4d\	.	.	.	2r	.	.	.
.	.	4c/	.	.	.	.	.	.	.
.	.	4B-/	.	2d\	-mi-	2g\	ne	.	.
.	.	4A/	.	.	.	.	.	.	.
2r	.	1B-	.	1d	-ne	2f\	in	.	.
2G\	ne	.	.	.	.	2d/	fu-	.	.
=5-	=5-	=5-	=5-	=5-	=5-	=5-	=5-	=5-	=5-
2F/	in	2A/	-re	2r	.	2.f\	-ro-	0r	.
2D/	fu-	1A	tu-	2d\	ne	.	.	.	.
.	.	.	.	.	.	4g\	.	.	.
*lig	*	*	*	*	*	*	*	*	*
1F	-ro-	.	.	2c/	in	4a\	.	.	.
.	.	.	.	.	.	4g\	.	.	.
.	.	2c/	-o	2A/	fu-	4f\	.	.	.
.	.	.	.	.	.	4e/	.	.	.
=6-	=6-	=6-	=6-	=6-	=6-	=6-	=6-	=6-	=6-
*col	*	*	*	*	*	*	*	*	*
2.G\	.	0r	.	2.B-/	-ro-	2d/	.	1r	.
.	.	.	.	.	.	1b-	-re	.	.
*Xlig	*	*	*	*	*	*	*	*	*
4A\	.	.	.	4A/	.	.	.	.	.
*Xcol	*	*	*	*	*	*	*	*	*
4B-\	.	.	.	2G/	.	.	.	1.dd	DO-
4c\	.	.	.	.	.	.	.	.	.
2d\	.	.	.	2F/	-re	2.a\	tu-	.	.
=7-	=7-	=7-	=7-	=7-	=7-	=7-	=7-	=7-	=7-
*	*	*	*	*lig	*	*	*	*	*
1G	-re	1.d	Do-	1B-	tu-	.	.	.	.
.	.	.	.	.	.	4g\	.	.	.
.	.	.	.	.	.	2.g\	.	2dd\	-mi-
1D	tu-	.	.	1A	.	.	.	1dd	-ne
!	!	!	!	!	!	!LO:SIC:v:t=custos f	!	!	!
.	.	.	.	.	.	4f\	.	.	.
!	!	!LO:SIC:v:t=custos d	!	!	!	!LO:LB:g=original	!	!	!
.	.	2d\	-mi-	.	.	4f\	.	.	.
.	.	.	.	.	.	8g\	.	.	.
.	.	.	.	.	.	8a\	.	.	.
*	*	*	*	*Xlig	*	*	*	*	*
!	!	!LO:LB:g=original	!	!	!	!	!	!	!
=8-	=8-	=8-	=8-	=8-	=8-	=8-	=8-	=8-	=8-
1G	-o	1d	-ne	2G/	-o	1b-	.	2r	.
.	.	.	.	2.d\	ar-	.	.	2gg\	ne
1r	.	2r	.	.	.	2a\	-o	2ff\	in
.	.	.	.	4d\	-gu-	.	.	.	.
.	.	2g\	ne	2G/	-as	2b-\	ne	2dd\	fu-
=9-	=9-	=9-	=9-	=9-	=9-	=9-	=9-	=9-	=9-
2r	.	2f\	in	1d	me	2a\	in	2.ff\	-ro-
!LO:SIC:v:t=custos A	!	!	!	!	!	!	!	!	!
2B-\	ne	2d\	fu-	.	.	2f\	fu-	.	.
.	.	.	.	.	.	.	.	8ee\	.
.	.	.	.	.	.	.	.	8dd\	.
!LO:LB:g=original	!	!	!	!LO:SIC:v:t=custos g	!	!	!	!	!
2A\	in	1.f	-ro-	0r	.	2.a\	-ro-	2.cc\	.
2F/	fu-	.	.	.	.	.	.	.	.
.	.	.	.	.	.	4b-\	-re	4b-/	.
=10-	=10-	=10-	=10-	=10-	=10-	=10-	=10-	=10-	=10-
2A\	-ro-	.	.	.	.	2cc\	tu-	2a/	.
2B-\	-re	2f\	-re	.	.	4b-\	.	2dd\	-re
.	.	.	.	.	.	4a\	.	.	.
!	!	!	!	!LO:LB:g=original	!	!	!	!	!
1c	tu-	1e	tu-	2r	.	1g	-o	1cc	tu-
.	.	.	.	1g\	Do-	.	.	.	.
=11-	=11-	=11-	=11-	=11-	=11-	=11-	=11-	=11-	=11-
!	!	!	!	!	!	!	!	!LO:N:acc=#	!
!	!	!	!	!	!	!	!	!LO:SIC:v:t=custos dd	!
2G\	-o	2d\	-o	.	.	1r	.	2bn/	-o
!	!	!LO:N:acc=#	!	!	!	!	!	!LO:LB:g=original	!
2.G\	ar-	2Bn/	ne	2g\	-mi-	.	.	2.dd\	ar-
.	.	2B/	in	1g	-ne	2r	.	.	.
4G\	-gu-	.	.	.	.	.	.	4dd\	-gu-
2C/	-as	2c/	fu-	.	.	2cc\	ne	2ee-X\	-as
=12-	=12-	=12-	=12-	=12-	=12-	=12-	=12-	=12-	=12-
1G	me	2d\	-ro-	2r	.	2.b-\	in	2dd\	me
.	.	2G/	-re	2g\	ne	.	.	2.dd\	ar-
.	.	.	.	.	.	4g\	fu-	.	.
1r	.	1d	tu-	2.f\	in	2a\	-ro-	.	.
.	.	.	.	.	.	.	.	4dd\	-gu-
.	.	.	.	.	.	2f\	-re	2a/	-as
.	.	.	.	4d\	fu-	.	.	.	.
=13-	=13-	=13-	=13-	=13-	=13-	=13-	=13-	=13-	=13-
0r	.	2A/	-o	2e\	-ro-	4a\	tu-	4cc\	me
.	.	.	.	.	.	4b-\	.	4dd\	.
.	.	2.a\	ar-	2c/	-re	4cc\	.	4eeny\	.
!	!	!	!	!	!	!LO:SIC:v:t=custos b	!	!	!
.	.	.	.	.	.	4a\	.	4cc\	.
!	!	!	!	!	!	!LO:LB:g=original	!	!	!
.	.	.	.	2d\	tu-	1b-	.	2ff\	.
.	.	4a\	-gu-	.	.	.	.	.	.
!	!	!LO:SIC:v:t=custos a	!	!	!	!	!	!	!
.	.	2g\	-as	2e\	.	.	.	4ee\	.
.	.	.	.	.	.	.	.	4dd\	.
!	!	!LO:LB:g=original	!	!	!	!	!	!	!
=14-	=14-	=14-	=14-	=14-	=14-	=14-	=14-	=14-	=14-
2r	.	1a	me	1f	.	2a\	-o	1cc	.
2.A\	ar-	.	.	.	.	2.a\	ar-	.	.
.	.	2r	.	2e\	-o	.	.	0r	.
4A\	-gu-	.	.	.	.	4a\	-gu-	.	.
2B-\	-as	2d\	ne-	2.d\	ar-	2g\	-as	.	.
=15-	=15-	=15-	=15-	=15-	=15-	=15-	=15-	=15-	=15-
1A	me	2f\	-que	.	.	2a\	me	.	.
.	.	.	.	4d\	-gu-	.	.	.	.
.	.	2e\	in	2c#X/	-as	1a	ne-	.	.
2r	.	2f#X\	i-	1d	me	.	.	2r	.
!LO:SIC:v:t=custos d	!	!	!	!	!	!	!	!	!
2G\	ne-	2g\	-ra	.	.	1b-\	-que	1dd\	ne-
!LO:LB:g=original	!	!	!	!	!	!	!	!	!
=16-	=16-	=16-	=16-	=16-	=16-	=16-	=16-	=16-	=16-
!	!	!	!	!LO:SIC:v:t=custos d	!	!	!	!	!
1.d	-que	2.fny\	tu-	0r	.	.	.	.	.
.	.	.	.	.	.	2a\	in	1ff	-que
.	.	4e\	.	.	.	.	.	.	.
!	!	!	!	!	!	!LO:N:acc=#	!	!	!
.	.	2d\	.	.	.	2bn\	i-	.	.
2A\	in	2c/	-a	.	.	2cc\	-ra	2ee\	in
!	!	!	!	!LO:LB:g=original	!	!	!	!	!
=17-	=17-	=17-	=17-	=17-	=17-	=17-	=17-	=17-	=17-
2d\	i-	00r	.	2r	.	4a\	tu-	2ff#X\	i-
.	.	.	.	.	.	8g\	.	.	.
.	.	.	.	.	.	8a\	.	.	.
!	!	!	!	!	!	!	!	!LO:SIC:v:t=custos ff	!
2G\	-ra	.	.	1d	ne	2b-y\	.	2gg\	-ra
*	*	*	*	*	*	*lig	*	*	*
!	!	!	!	!	!	!	!	!LO:LB:g=original	!
1d	tu-	.	.	.	.	1a	-a	2ffny\	tu-
.	.	.	.	1f\	que	.	.	1dd\	-a
=18-	=18-	=18-	=18-	=18-	=18-	=18-	=18-	=18-	=18-
!LO:N:acc=#	!	!	!	!	!	!	!	!	!
2Bn\	-a	.	.	.	.	1g	.	.	.
2c\	cor-	.	.	2e\	in	.	.	4cc\	cor-
.	.	.	.	.	.	.	.	4b-y/	.
*	*	*	*	*	*	*Xlig	*	*	*
2d\	-ri-	.	.	2f#X\	i-	2r	.	2a/	.
*	*	*	*	*	*	*	*ij	*	*
2B-y\	-pi-	.	.	2g\	-ra	2d/	ne-	2.dd\	-ri-
=19-	=19-	=19-	=19-	=19-	=19-	=19-	=19-	=19-	=19-
1A	-as	2r	.	2a\	tu-	2f\	-que	.	.
.	.	.	.	.	.	.	.	4dd\	-pi-
*	*	*	*ij	*	*	*	*	*	*
.	.	1A	ne-	1a	-a	2e/	in	2cc#X\	-as
0D	me	.	.	.	.	2f#X\	i-	0dd	me
.	.	2B-y/	-que	1g\	cor-	2g\	-ra	.	.
=20-	=20-	=20-	=20-	=20-	=20-	=20-	=20-	=20-	=20-
.	.	1A	in	.	.	2a\	tu-	.	.
.	.	.	.	2.fny\	-ri-	2d/	-a	.	.
*	*	*	*	*	*	*	*Xij	*	*
1r	.	2B-/	i-	.	.	2.g\	cor-	0r	.
.	.	.	.	4f\	-pi-	.	.	.	.
.	.	2c/	-ra	2e\	-as	.	.	.	.
.	.	.	.	.	.	4a\	.	.	.
=21-	=21-	=21-	=21-	=21-	=21-	=21-	=21-	=21-	=21-
!	!	!	!	!	!	!LO:SIC:v:t=custos a	!	!	!
2r	.	1d	tu-	1f	me	2b-\	.	.	.
!	!	!	!	!	!	!LO:LB:g=original	!	!	!
2D/	ne-	.	.	.	.	2.a\	-ri-	.	.
2F/	-que	2c/	-a	1r	.	.	.	1r	.
*	*	*	*Xij	*	*	*	*	*	*
.	.	.	.	.	.	4a\	-pi-	.	.
2E/	in	2c/	ne-	.	.	2g\	-as	.	.
=22-	=22-	=22-	=22-	=22-	=22-	=22-	=22-	=22-	=22-
2F#X/	i-	2A/	-que	1d	ne-	2a\	me	2r	.
2G\	-ra	2B-/	in	.	.	2d/	ne-	2gg\	ne-
0A	tu-	4A/	i-	2cny/	-que	1.a	-que	2ee\	-que
.	.	4B-/	.	.	.	.	.	.	.
.	.	4c/	.	2A/	in	.	.	2ff\	in
!	!	!LO:SIC:v:t=custos e	!	!	!	!	!	!	!
.	.	4d\	.	.	.	.	.	.	.
!	!	!LO:LB:g=original	!	!	!	!	!	!	!
=23-	=23-	=23-	=23-	=23-	=23-	=23-	=23-	=23-	=23-
.	.	2e\	.	2c/	i-	.	.	2ee\	i-
.	.	2f\	-ra	2d\	-ra	2a\	in	1dd	-ra
1A	-a	1e	tu-	2e\	tu-	2a\	i-	.	.
.	.	.	.	1A/	-a	2a\	-ra	2cc#X\	tu-
=24-	=24-	=24-	=24-	=24-	=24-	=24-	=24-	=24-	=24-
1.D	cor-	2.d\	-a	.	.	2.f#X\	tu-	1dd	-a
.	.	.	.	1d	cor-	.	.	.	.
.	.	4e\	.	.	.	4g\	.	.	.
.	.	2f#X\	.	.	.	2a\	.	2r	.
2.G\	-ri-	1g\	cor-	1B-/	-ri-	2d/	-a	1b-\	cor-
=25-	=25-	=25-	=25-	=25-	=25-	=25-	=25-	=25-	=25-
.	.	.	.	.	.	2d/	cor-	.	.
4G\	-pi-	.	.	.	.	.	.	.	.
!LO:SIC:v:t=custos D	!	!	!	!	!	!	!	!	!
2G\	-as	2.d\	-ri-	2B-/	-pi-	2.g\	-ri-	2.dd\	-ri-
!LO:LB:g=original	!	!	!	!	!	!	!	!	!
1D	me	.	.	1A	-as	.	.	.	.
.	.	4d\	-pi-	.	.	4f#X\	-pi-	4dd\	-pi-
.	.	2d\	-as	.	.	2f#\	-as	2a/	-as
=26-	=26-	=26-	=26-	=26-	=26-	=26-	=26-	=26-	=26-
!	!	!	!	!	!	!	!	!LO:N:acc=#	!
0r	.	0d	me	0G	me	0g	me	0bn	me
=27-	=27-	=27-	=27-	=27-	=27-	=27-	=27-	=27-	=27-
1.G	Mi-	1.d	Mi-	1.B-	Mi-	1r	.	1.dd	Mi-
.	.	.	.	.	.	1.g	Mi-	.	.
!	!	!	!	!LO:SIC:v:t=custos B	!	!	!	!LO:SIC:v:t=custos dd	!
2G\	-ſe-	2d\	-ſe-	2B-/	-ſe-	.	.	2dd\	-ſe-
!	!	!	!	!LO:LB:g=original	!	!	!	!LO:LB:g=original	!
=28-	=28-	=28-	=28-	=28-	=28-	=28-	=28-	=28-	=28-
2G\	-re-	2d\	-re-	2B-/	-re-	.	.	2dd\	-re-
2G\	-re	2d\	-re	2B-/	-re	2g\	-ſe-	2dd\	-re
0E-X	me-	0e-X	me-	0B-	me-	2g\	-re-	0gg	me-
.	.	.	.	.	.	2g\	-re	.	.
=29-	=29-	=29-	=29-	=29-	=29-	=29-	=29-	=29-	=29-
.	.	.	.	.	.	1b-	me-	.	.
1BB-	-i	1d	-i	1B-	-i	2b-\	-i	1ff	-i
.	.	.	.	.	.	1b-\	Do-	.	.
=30-	=30-	=30-	=30-	=30-	=30-	=30-	=30-	=30-	=30-
1.Fny	Do-	1.c	Do-	2r	.	.	.	1.ff	Do-
.	.	.	.	1f	Do-	4a\	.	.	.
!	!	!	!	!	!	!LO:SIC:v:t=custos a	!	!	!
.	.	.	.	.	.	4g\	.	.	.
!	!	!	!	!	!	!LO:LB:g=original	!	!	!
.	.	.	.	.	.	2a\	.	.	.
2F/	-mi-	2c/	-mi-	2f\	-mi-	2a\	-mi-	2ff\	-mi-
=31-	=31-	=31-	=31-	=31-	=31-	=31-	=31-	=31-	=31-
2BB-/	-ne	1B-	-ne	1f	-ne	0.b-	-ne	2dd\	-ne
1B-	quo-	.	.	.	.	.	.	1dd	quo-
.	.	1.fny	quo-	1r	.	.	.	.	.
2B-\	-ni-	.	.	.	.	.	.	2dd\	-ni-
=32-	=32-	=32-	=32-	=32-	=32-	=32-	=32-	=32-	=32-
2B-\	-am	.	.	0r	.	.	.	2dd\	-am
2B-\	in-	2f\	-ni-	.	.	.	.	2dd\	in-
1A	-fir-	2f\	-am	.	.	1r	.	0ccny	-fir-
!	!	!LO:SIC:v:t=custos e	!	!	!	!	!	!	!
.	.	2f\	in-	.	.	.	.	.	.
!	!	!LO:LB:g=original	!	!	!	!	!	!	!
=33-	=33-	=33-	=33-	=33-	=33-	=33-	=33-	=33-	=33-
0G	-mus	1e-X	-fir-	1.g	quo-	00r	.	.	.
.	.	1d	-mus	.	.	.	.	1b-y	-mus
.	.	.	.	2g\	-ni-	.	.	.	.
=34-	=34-	=34-	=34-	=34-	=34-	=34-	=34-	=34-	=34-
0D	ſum	0d	ſum	1f	-am	.	.	1a	ſum
.	.	.	.	1f	in-	.	.	1a	in-
=35-	=35-	=35-	=35-	=35-	=35-	=35-	=35-	=35-	=35-
0r	.	1r	.	1.e-X	-fir-	1.g	quo-	1b-	-fir-
.	.	1.c	quo-	.	.	.	.	1cc	-mus
.	.	.	.	2e-\	-mus	2g\	-ni-	.	.
=36-	=36-	=36-	=36-	=36-	=36-	=36-	=36-	=36-	=36-
0G	in-	.	.	0d	ſum	1g	-am	0dd	ſum
.	.	2B-/	-ni-	.	.	.	.	.	.
*	*	*	*	*	*	*lig	*	*	*
.	.	2G/	-am	.	.	1b-	in-	.	.
.	.	2B-/	in-	.	.	.	.	.	.
=37-	=37-	=37-	=37-	=37-	=37-	=37-	=37-	=37-	=37-
*	*	*lig	*	*	*	*	*	*	*
1F	-fir-	0c	-fir-	00r	.	1a	.	1r	.
*	*	*	*	*	*	*Xlig	*	*	*ij
1Eny	-mus	.	.	.	.	0g	-fir-	1cc	in-
=38-	=38-	=38-	=38-	=38-	=38-	=38-	=38-	=38-	=38-
*	*	*col	*	*	*	*	*	*	*
0D	ſum	1.d	.	.	.	.	.	1b-	-fir-
.	.	.	.	.	.	1f#X	-muss	1a	-mus
*	*	*Xlig	*	*	*	*	*	*	*
.	.	2d\	mus	.	.	.	.	.	.
*	*	*Xcol	*	*	*	*	*	*	*
=39-	=39-	=39-	=39-	=39-	=39-	=39-	=39-	=39-	=39-
!LO:SIC:v:t=custos c	!	!	!	!	!	!	!	!LO:N:acc=#	!
0d	ſa-	0G	ſum	0r	.	0g	ſum	0bn	ſum
*	*	*	*	*	*	*	*	*	*Xij
!LO:LB:g=original	!	!	!	!	!	!	!	!	!
=40-	=40-	=40-	=40-	=40-	=40-	=40-	=40-	=40-	=40-
1.c	-na	00r	.	0g	ſa-	00r	.	0r	.
2G\	me	.	.	.	.	.	.	.	.
=41-	=41-	=41-	=41-	=41-	=41-	=41-	=41-	=41-	=41-
2.B-\	Do-	.	.	1.f	-na	.	.	0dd	ſa-
4c\	.	.	.	.	.	.	.	.	.
2d\	.	.	.	.	.	.	.	.	.
4c\	.	.	.	2d\	me	.	.	.	.
4B-\	.	.	.	.	.	.	.	.	.
=42-	=42-	=42-	=42-	=42-	=42-	=42-	=42-	=42-	=42-
2.A\	.	00r	.	2f\	Do-	0r	.	1.cc	-na
.	.	.	.	4eny\	.	.	.	.	.
4B-\	.	.	.	4d\	.	.	.	.	.
*lig	*	*	*	*	*	*	*	*	*
1c	.	.	.	2e\	.	.	.	.	.
!	!	!	!	!LO:SIC:v:t=custos d	!	!	!	!LO:SIC:v:t=custos b	!
.	.	.	.	2e\	-mi-	.	.	2g/	me
!	!	!	!	!LO:LB:g=original	!	!	!	!LO:LB:g=original	!
=43-	=43-	=43-	=43-	=43-	=43-	=43-	=43-	=43-	=43-
1.G	.	.	.	2d\	-ne	0g	ſa-	2.b-y/	Do-
.	.	.	.	1d	ſa-	.	.	.	.
.	.	.	.	.	.	.	.	4a/	.
.	.	.	.	.	.	.	.	4b-/	.
.	.	.	.	.	.	.	.	4cc\	.
*Xlig	*	*	*	*	*	*	*	*	*
2G\	-mi-	.	.	2B-/	-na	.	.	1dd\	.
=44-	=44-	=44-	=44-	=44-	=44-	=44-	=44-	=44-	=44-
0D	-ne	0d	ſa-	1A	me	1.fny	-na	.	.
.	.	.	.	.	.	.	.	4cc\	.
.	.	.	.	.	.	.	.	4b-/	.
.	.	.	.	2r	.	.	.	2a/	.
.	.	.	.	1a\	ſa-	2d/	me	2f/	-mi-
=45-	=45-	=45-	=45-	=45-	=45-	=45-	=45-	=45-	=45-
0r	.	1.c	-na	.	.	2.e/	Do-	2cc\	-ne
*	*	*	*	*	*	*	*	*	*ij
.	.	.	.	2g\	-na	.	.	1cc	Do-
.	.	.	.	.	.	4f\	.	.	.
.	.	.	.	2e\	me	4g\	.	.	.
.	.	.	.	.	.	4c/	.	.	.
.	.	2G/	me	2.g\	do-	1d/	.	1b-\	.
=46-	=46-	=46-	=46-	=46-	=46-	=46-	=46-	=46-	=46-
*	*ij	*	*	*	*	*	*	*	*
0G	ſa-	2.B-/	Do-	.	.	.	.	.	.
.	.	.	.	4g\	-mi-	.	.	.	.
.	.	.	.	2d\	-ne	2B-/	-mi-	2g/	.
.	.	4c/	.	.	.	.	.	.	.
.	.	2d\	.	2r	.	4B-/	-ne	2b-/	.
.	.	.	.	.	.	4c/	.	.	.
*	*	*	*	*	*ij	*	*	*	*
.	.	4c/	.	1d\	ſa-	4d/	.	4a/	.
.	.	4B-/	.	.	.	4e/	.	4g/	.
=47-	=47-	=47-	=47-	=47-	=47-	=47-	=47-	=47-	=47-
!	!	!	!	!	!	!LO:SIC:v:t=custos e	!	!	!
1.F	-na	1A	.	.	.	0f	.	2.a/	.
.	.	.	.	2c/	-na	.	.	.	.
.	.	.	.	.	.	.	.	4b-/	.
.	.	1F	-mi-	2A/	me	.	.	2cc\	.
2D/	me	.	.	2.B-/	do-	.	.	2dd\	-mi-
.	.	.	.	.	.	.	.	.	.
!	!	!	!	!	!	!LO:LB:g=original	!	!	!
=48-	=48-	=48-	=48-	=48-	=48-	=48-	=48-	=48-	=48-
1.E-X	Do-	1G	-ne	.	.	2.e-/	Do-	1g	-ne
*	*	*	*	*	*	*	*	*	*Xij
.	.	.	.	4A/	.	.	.	.	.
.	.	.	.	4G/	.	.	.	.	.
.	.	.	.	4F/	.	8d/L	.	.	.
.	.	.	.	.	.	8c/J	.	.	.
*	*	*	*ij	*	*	*	*	*	*
!	!	!LO:SIC:v:t=custos d	!	!	!	!	!	!	!
.	.	1e-X	ſa-	2G/	.	2B-/	.	1gg	ſa-
2E-/	-mi-	.	.	2G/	-mi-	2B-/	-mi-	.	.
!	!	!LO:LB:g=original	!	!	!	!	!	!	!
=49-	=49-	=49-	=49-	=49-	=49-	=49-	=49-	=49-	=49-
0BB-	-ne	1d	-na	2.B-/	-ne	1f	-ne	1.ff	-na
*	*Xij	*	*	*	*Xij	*	*	*	*
.	.	.	.	4c/	.	.	.	.	.
.	.	1B-	me	4d\	.	2r	.	.	.
.	.	.	.	4e\	.	.	.	.	.
.	.	.	.	2f\	.	2b-\	ſa-	2dd\	me
=50-	=50-	=50-	=50-	=50-	=50-	=50-	=50-	=50-	=50-
0r	.	1.c	Do-	1r	.	2g\	-na	1.ee-X	do-
.	.	.	.	.	.	2g\	me	.	.
.	.	.	.	2r	.	2.cc\	do-	.	.
!	!	!	!	!	!	!	!	!LO:SIC:v:t=custos dd	!
.	.	2c/	-mi-	1g\	quo-	.	.	2ee-\	-mi-
.	.	.	.	.	.	4b-\	-mi-	.	.
!	!	!	!	!	!	!	!	!LO:LB:g=original	!
=51-	=51-	=51-	=51-	=51-	=51-	=51-	=51-	=51-	=51-
1.D	quo-	1d	-ne	.	.	2a\	-ne	2dd\	-ne
*	*	*	*Xij	*	*	*	*	*	*
.	.	.	.	4f#X\	.	1a	quo-	1dd	quo-
!	!	!	!	!LO:SIC:v:t=custos f	!	!	!	!	!
.	.	.	.	4e\	.	.	.	.	.
!	!	!	!	!LO:LB:g=original	!	!	!	!	!
.	.	2r	.	2f#X\	.	.	.	.	.
2D/	-ni-	1d\	quo-	2f#\	-ni-	2a\	-ni-	2dd\	-ni-
=52-	=52-	=52-	=52-	=52-	=52-	=52-	=52-	=52-	=52-
!LO:SIC:v:t=custos G	!	!	!	!	!	!	!	!	!
1G	-am	.	.	1g	-am	1b-	-am	1dd	-am
.	.	2d\	-ni-	.	.	.	.	.	.
!LO:LB:g=original	!	!	!	!	!	!	!	!	!
4r	.	4G/	-am	1r	.	2g\	con-	2r	.
2G\	con-	4B-/	con-	.	.	.	.	.	.
.	.	4c/	-tur-	.	.	2a\	-tur-	4r	.
4F#X/	-tur-	2d\	-ba-	.	.	.	.	2dd\	con-
=53-	=53-	=53-	=53-	=53-	=53-	=53-	=53-	=53-	=53-
4G\	-ba-	.	.	4r	.	4b-\	-ba-	.	.
4Eny/	-ta	4c/	-ta	4G/	con-	2g\	-ta	4eeny\	-tur-
4D/	ſunt	2d\	ſunt	4A/	-tur-	.	.	4ff\	-ba-
*	*ij	*	*	*	*	*	*	*	*
2d\	con-	.	.	4B-/	-ba-	4f\	ſunt	4dd\	-ta
.	.	1r	.	4G/	-ta	4b-\	oſ-	2ee\	ſunt
4c#X\	-tur-	.	.	4A/	ſunt	2a\	-ſa	.	.
4d\	-ba-	.	.	4F#X/	oſ-	.	.	4.dd\	oſ-
!LO:N:acc=#	!	!	!	!	!	!	!	!	!
4Bn\	-ta	.	.	4G/	-ſa	4d/	me-	.	.
.	.	.	.	.	.	.	.	8ee\	.
=54-	=54-	=54-	=54-	=54-	=54-	=54-	=54-	=54-	=54-
!	!	!	!	!	!	!LO:SIC:v:t=custos a	!	!	!
4cny\	ſunt	2r	.	2A/	me-	1a	-a	2ff\	.
*	*Xij	*	*	*	*	*	*	*	*
2d\	oſ-	.	.	.	.	.	.	.	.
.	.	4r	.	2A/	-a	.	.	2ee\	-ſa
4c\	-ſa	4eny\	con-	.	.	.	.	.	.
!	!	!	!	!	!	!LO:LB:g=original	!	!	!
4B-y\	me-	4f\	-tur-	2r	.	2r	.	2dd\	me-
8A\	.	2g\	-ba-	.	.	.	.	.	.
8G\	.	.	.	.	.	.	.	.	.
2A\	.	.	.	4r	.	4r	.	2cc\	-a
*	*	*	*	*	*	*	*ij	*	*
.	.	4f#X\	-ta	4c/	con-	4a\	quo-	.	.
=55-	=55-	=55-	=55-	=55-	=55-	=55-	=55-	=55-	=55-
!	!	!	!	!	!	!LO:N:acc=#	!	!	!
1G	-a	2g\	ſunt	4d\	-tur-	4bn\	-ni-	0r	.
.	.	.	.	2e-X\	-ba-	2cc\	-am	.	.
.	.	4r	.	.	.	.	.	.	.
*	*	*	*ij	*	*	*	*	*	*
!	!	!	!	!	!	!LO:N:acc=#	!	!	!
.	.	2G/	con-	4d\	-ta	4bn\	con-	.	.
2r	.	.	.	4c/	ſunt	4cc\	-tur-	.	.
.	.	4F/	-tur-	4.d\	oſ-	4a\	-ba-	.	.
4r	.	4G/	-ba-	.	.	4b-y\	-ta	.	.
.	.	.	.	8e-\	.	.	.	.	.
!	!	!LO:SIC:v:t=custos B	!	!	!	!	!	!	!
2D/	con-	4A/	-ta	2fny\	.	2a\	ſunt	.	.
!	!	!LO:LB:g=original	!	!	!	!	!	!	!
=56-	=56-	=56-	=56-	=56-	=56-	=56-	=56-	=56-	=56-
.	.	2B-/	sunt	.	.	.	.	2r	.
*	*	*	*Xij	*	*	*	*	*	*
4E/	-tur-	.	.	8eny\	.	4g\	oſ-	.	.
.	.	.	.	8d\	.	.	.	.	.
4Fny/	-ba-	4A/	oſ-	4c/	.	2a\	-ſa	4r	.
*	*	*	*	*	*	*	*Xij	*	*
!LO:SIC:v:t=custos G	!	!	!	!LO:SIC:v:t=custos d	!	!	!	!	!
4D/	-ta	4d\	-ſa	4f\	-ſa	.	.	4a/	con-
!LO:LB:g=original	!	!	!	!LO:LB:g=original	!	!	!	!	!
4G\	ſunt	2B-/	me-	2d\	me-	1r	.	2b-/	-tur-
2G\	oſ-	.	.	.	.	.	.	.	.
.	.	2A/	-a	4.c/	.	.	.	2cc\	-ba-
4F/	-ſa	.	.	.	.	.	.	.	.
.	.	.	.	8d\	.	.	.	.	.
=57-	=57-	=57-	=57-	=57-	=57-	=57-	=57-	=57-	=57-
4.G\	me-	2r	.	4e-X\	.	2.g\	con-	2b-/	-ta
.	.	.	.	2d\	.	.	.	.	.
8F/	.	.	.	.	.	.	.	.	.
2E/	.	4r	.	.	.	.	.	2g/	ſunt
.	.	4G/	co(n)-	4c/	.	4g\	-tur-	.	.
2D/	-a	4A/	-tur-	2d\	-a	2f\	-ba-	4r	.
!	!	!	!	!	!	!	!	!LO:SIC:v:t=custos b	!
.	.	2d\	-ba-	.	.	.	.	4a/	con-
!	!	!	!	!	!	!	!	!LO:LB:g=original	!
!	!	!	!	!	!	!	!	!LO:N:acc=#	!
2r	.	.	.	4r	.	2eny/	-ta	4bn/	-tur-
.	.	2c/	-ta	4e-\	ſunt	.	.	4cc\	-ba-
=58-	=58-	=58-	=58-	=58-	=58-	=58-	=58-	=58-	=58-
0r	.	.	.	4f\	oſ-	2d/	ſunt	4dd\	-ta
!	!	!LO:N:acc=#	!	!	!	!	!	!	!
.	.	4Bn/	ſunt	4d\	-ſa	.	.	4ff\	ſunt
.	.	4c/	oſ-	1g	me-	4c/	oſ-	4ee\	oſ-
!	!	!LO:N:acc=#	!	!	!	!	!	!	!
.	.	4Bn/	-ſa	.	.	4d/	-ſa	4.dd\	-ſa
.	.	2c/	me-	.	.	4e/	me-	.	.
.	.	.	.	.	.	.	.	8cc\	.
.	.	.	.	.	.	8d/	.	2cc\	.
.	.	.	.	.	.	8c/	.	.	.
.	.	2G/	-a	2g\	-a	2d/	.	.	.
!	!	!	!	!	!	!	!	!LO:N:acc=#	!
.	.	.	.	.	.	.	.	4bn/	me-
=59-	=59-	=59-	=59-	=59-	=59-	=59-	=59-	=59-	=59-
2r	.	2r	.	2r	.	2c/	-a	1cc	-a
2C/	et	2c/	et	2eny\	et	2g\	et	.	.
2.F/	a-	2.c/	a-	2.f\	a-	2.a\	a-	2r	.
.	.	.	.	.	.	.	.	2cc\	et
!	!	!	!	!	!	!LO:SIC:v:t=custos a	!	!	!
4F/	-ni-	4c/	-ni-	4f\	-ni-	4a\	-ni-	.	.
!	!	!	!	!	!	!LO:LB:g=original	!	!	!
=60-	=60-	=60-	=60-	=60-	=60-	=60-	=60-	=60-	=60-
2F/	-ma	2c/	-ma	2f\	-ma	2a\	-ma	2.ff\	a-
1F	me-	1c	me-	1f	me-	1a	me-	.	.
.	.	.	.	.	.	.	.	4ff\	-ni-
.	.	.	.	.	.	.	.	2ff\	-ma
1D/	-a	1d\	-a	2f\	-a	1a\	-a	2ff\	me-
=61-	=61-	=61-	=61-	=61-	=61-	=61-	=61-	=61-	=61-
.	.	.	.	2d\	tur-	.	.	2ff\	-a
!	!	!LO:SIC:v:t=custos B	!	!	!	!	!	!	!
2A\	tur-	2c/	tur-	1e	-ba-	2a\	tur-	2ee\	tur-
!	!	!LO:LB:g=original	!	!	!	!	!	!	!
1.E	-ba-	1.Bn	-ba-	.	.	1.g#X	-ba-	1.ee	-ba-
.	.	.	.	2e\	-ta	.	.	.	.
=62-	=62-	=62-	=62-	=62-	=62-	=62-	=62-	=62-	=62-
.	.	.	.	0.e	eſt	.	.	.	.
2E/	-ta	2B/	-ta	.	.	2g#\	-ta	2ee\	-ta
0E	eſt	0B	eſt	.	.	0g#	eſt	0ee	eſt
=63-	=63-	=63-	=63-	=63-	=63-	=63-	=63-	=63-	=63-
.	.	.	.	.	.	.	.	.	.
1A	val-	1A	val-	1e	val-	1a	val-	1cc#X	val-
=64-	=64-	=64-	=64-	=64-	=64-	=64-	=64-	=64-	=64-
!	!	!	!	!LO:SIC:v:t=custos d	!	!	!	!LO:SIC:v:t=custos ff	!
1D	-de	1A	-de	1d	-de	1f#X	-de	1dd	-de
!	!	!	!	!LO:LB:g=original	!	!	!	!LO:LB:g=original	!
00r	.	2r	.	2r	.	2r	.	2r	.
.	.	1d\	ſed	1d\	ſed	1a\	ſed	1ff\	ſed
=65-	=65-	=65-	=65-	=65-	=65-	=65-	=65-	=65-	=65-
.	.	.	.	.	.	.	.	.	.
.	.	2c#X/	tu	2e\	tu	2a\	tu	2ee\	tu
.	.	2.d\	do-	2.f\	do-	2.a\	do-	2.dd\	do-
.	.	4d\	-mi-	4f\	-mi-	4a\	-mi-	4dd\	-mi-
=66-	=66-	=66-	=66-	=66-	=66-	=66-	=66-	=66-	=66-
.	.	2A/	-ne	2e\	-ne	2a\	-ne	2ccny\	-ne
.	.	1B-y	vſ-	1d	vſ-	1fny	vſ-	1b-y	vſ-
!LO:SIC:v:t=custos G	!	!	!	!	!	!	!	!	!
0r	.	.	.	.	.	.	.	.	.
.	.	2G/	-que-	2g\	-que-	2b-\	-que-	2dd\	-que-
=67-	=67-	=67-	=67-	=67-	=67-	=67-	=67-	=67-	=67-
.	.	1d	-quo	1f#X	-quo	1a	-quo	1dd	-quo
!LO:LB:g=original	!	!	!	!	!	!	!	!	!
2r	.	2r	.	2r	.	2r	.	2r	.
1G\	ſed	1B-/	ſed	1g\	ſed	1d/	ſed	1dd\	ſed
=68-	=68-	=68-	=68-	=68-	=68-	=68-	=68-	=68-	=68-
.	.	.	.	.	.	.	.	.	.
2F#X/	tu	2A/	tu	2a\	tu	2d/	tu	2dd\	tu
2.G\	do-	2.B-/	do-	2.g\	do-	2.d/	do-	2.dd\	do-
4G\	-mi-	4B-/	-mi-	4g\	-mi-	4d/	-mi-	4dd\	-mi-
=69-	=69-	=69-	=69-	=69-	=69-	=69-	=69-	=69-	=69-
1D	-ne	1A	-ne	1fny	-ne	1d	-ne	1dd	-ne
0E-X	vſ-	0.G	vſ-	0e-X	vſ-	0gny	vſ-	0b-	vſ-
=70-	=70-	=70-	=70-	=70-	=70-	=70-	=70-	=70-	=70-
.	.	.	.	.	.	.	.	.	.
0C	-que-	.	.	0e-	-que-	0g	-que-	0cc	-que-
=71-	=71-	=71-	=71-	=71-	=71-	=71-	=71-	=71-	=71-
.	.	1cny	-que-	.	.	.	.	.	.
!	!	!LO:N:acc=#	!	!	!	!	!	!	!
1Gl	-quo.	1Bnl	-quo.	1dl	-quo.	1gl	-quo	1ddl	-quo.
==	==	==	==	==	==	==	==	==	==
*-	*-	*-	*-	*-	*-	*-	*-	*-	*-
!!!system-decoration: [(*)]
!!!RDF**kern: l = terminal long
!!!ENC: Andrzej Gręziak
!!!END: 2022-07-19
!!!ENC: Andrzej Kubiczek
!!!END: 2022-08-08
!!!YEC: Copyright 2022 Narodowy Instytut Fryderyka Chopina (https://polishscores.org)
!!!YEM: License CC-BY-4.0 (https://creativecommons.org/licenses/by/4.0)
